svg/300/sharp/coffee.svg

<svg xmlns="http://www.w3.org/2000/svg" width="48" height="48" viewBox="0 -960 960 960"><path d="M446.423-257.001q-109.268 0-187.845-74.182-78.577-74.181-78.577-181.971v-306.845h561.691q48.741 0 83.524 32.962 34.783 32.961 34.783 81.191 0 54.198-33.539 95.021-33.538 40.824-84.768 40.824h-32.693v56.847q0 107.412-77.23 181.782-77.231 74.371-185.346 74.371ZM225.385-615.384h438.23v-159.231h-438.23v159.231Zm221.038 312.999q89.654 0 153.423-60.846 63.769-60.846 63.769-149.923v-56.847h-438.23v56.847q0 89.462 65.308 150.116 65.307 60.653 155.73 60.653Zm262.576-312.999h32.693q33 0 52.961-27.635 19.962-27.634 19.962-62.827 0-29-21.805-48.884-21.806-19.885-51.022-19.885h-32.789v159.231ZM180.001-140.001v-45.384h599.998v45.384H180.001Zm264.692-430Z"/></svg>

<svg xmlns="http://www.w3.org/2000/svg" width="48" height="48" viewBox="0 -960 960 960"><path d="M446.42-257q-109.27 0-187.84-74.18Q180-405.36 180-513.15V-820h561.69q48.74 0 83.53 32.96Q860-754.08 860-705.85q0 54.2-33.54 95.03Q792.92-570 741.69-570H709v56.85q0 107.41-77.23 181.78T446.42-257ZM225.39-615.38h438.23v-159.23H225.39v159.23Zm221.03 313q89.66 0 153.43-60.85 63.77-60.85 63.77-149.92V-570H225.39v56.85q0 89.46 65.3 150.11 65.31 60.66 155.73 60.66Zm262.58-313h32.69q33 0 52.96-27.64 19.96-27.63 19.96-62.83 0-29-21.8-48.88-21.81-19.88-51.02-19.88H709v159.23ZM180-140v-45.39h600V-140H180Zm264.69-430Z"/></svg>
